X:1
T:Title
%%score ( 1 2 3 ) 4
L:1/8
Q:1/4=100
M:6/8
K:Ab
V:1 treble nm="Grand Piano, Soprano"
V:2 treble 
V:3 treble 
V:4 bass nm="Choir Pad, Gather Them into the Fold"
V:1
 [Ec][Ec][Ec] [Ec][DB][Ec] | [CA]3 [CE]3 | [EB][EB][EB] [EB][EA][EB] | [Ec]6 | %4
w: By~William~Augustine~Ogden * * * * *||||
 [Ec][Ec][Ec] [Ec][DB][Ec] | [CA]3 [CE]3 | [EB][EB][EB] [EB][Ec][DB] | [CA]6 | %8
w: ||||
 [EB][EB][EB] [EB][EA][EB] | [Ec]3 [Ec]3 | [Ec][Ec][Ec] [Ec][EB][Ec] | [Fd]6 | %12
w: ||||
 [Ec][Ec][Ec] [Fd][Ec][GB] | [FA]3 [DF]3 | [CE][CE][CE] [DE][DF][DG] | [CA]6 | .B6 | c6 | .c6 | %19
w: |||||||
 [Fd]6 | [Ec][Ec][Ec] [Fd][Ec][GB] | [FA]3 [DF]3 | [CE][CE][CE] E[Ec][DB] | [CA]6- | [CA]3 z3 |] %25
w: ||||||
V:2
 x6 | x6 | x6 | x6 | x6 | x6 | x6 | x6 | x6 | x6 | x6 | x6 | x6 | x6 | x6 | x6 | EEE z A[EB] | %17
 EEE .E3 | EEE E[EB][Ec] | x6 | x6 | x6 | x6 | x6 | x6 |] %25
V:3
 x6 | x6 | x6 | x6 | x6 | x6 | x6 | x6 | x6 | x6 | x6 | x6 | x6 | x6 | x6 | x6 | z3 .E3 | x6 | x6 | %19
 x6 | x6 | x6 | x6 | x6 | x6 |] %25
V:4
 A,A,A, A,A,A, | A,3 A,3 | [E,G,][E,G,][E,G,] [E,G,][C,A,][E,G,] | A,6 | A,A,A, A,A,A, | A,3 A,3 | %6
 [E,G,][E,G,][E,G,] [E,G,][E,A,][E,G,] | [A,,A,]6 | [E,G,][E,G,][E,G,] [E,G,][E,F,][E,G,] | %9
 A,3 A,3 | A,A,A, A,[E,G,]A, | [D,A,]6 | [A,,A,][A,,A,][A,,A,] [A,,A,][A,,A,][A,,A,] | %13
 [D,A,]3 [D,D]3 | [E,G,][E,G,][E,G,] [E,G,][E,A,][E,B,] | [A,,A,]6 | %16
 [E,G,][E,G,][E,G,] [E,G,][C,A,][E,G,] | A,A,A, .A,3 | A,A,A, A,[E,G,]A, | [D,A,]6 | %20
 [A,,A,][A,,A,][A,,A,] [A,,A,][A,,A,][A,,A,] | [D,A,]3 [D,D]3 | %22
 [E,A,][E,A,][E,A,] [E,C][E,A,][E,G,] | [A,,A,]6- | [A,,A,]3 z3 |] %25

